src/lib/packages/icons/src/assets/filled/chart-bar-circle.svg

<svg xmlns="http://www.w3.org/2000/svg" width="24" height="24" fill="none"><path fill="currentColor" d="M12 2C6.477 2 2 6.477 2 12s4.477 10 10 10 10-4.477 10-10S17.523 2 12 2Zm-1.5 13.5c0 1-.5 1.5-1.5 1.5s-1.5-.5-1.5-1.5v-3c0-1 .5-1.5 1.5-1.5s1.5.5 1.5 1.5v3Zm6 0c0 1-.5 1.5-1.5 1.5s-1.5-.5-1.5-1.5v-7c0-1 .5-1.5 1.5-1.5s1.5.5 1.5 1.5v7Z"/></svg>

<svg width="24" height="24" viewBox="0 0 24 24" fill="none" xmlns="http://www.w3.org/2000/svg">
<path d="M12 2C6.477 2 2 6.477 2 12C2 17.523 6.477 22 12 22C17.523 22 22 17.523 22 12C22 6.477 17.523 2 12 2ZM10.5 15.5C10.5 16.5 10 17 9 17C8 17 7.5 16.5 7.5 15.5V12.5C7.5 11.5 8 11 9 11C10 11 10.5 11.5 10.5 12.5V15.5ZM16.5 15.5C16.5 16.5 16 17 15 17C14 17 13.5 16.5 13.5 15.5V8.5C13.5 7.5 14 7 15 7C16 7 16.5 7.5 16.5 8.5V15.5Z" fill="currentColor"/>
</svg>
